X:1
T:Title
%%score { ( 1 3 ) | ( 2 4 ) }
L:1/8
Q:1/4=100
M:3/4
K:F
V:1 treble nm="Grand Piano"
V:3 treble 
V:2 bass 
V:4 bass 
V:1
 A2 A2 B2 | A4 A2 | c2 z2 z2 | [EG]4 A2 | c2 A2 d2 | c4 F2 | G2 z2 z2 | [CEG]6 | E2 F2 G2 | %9
w: S.~M.~Bixby * *|||||||||
 z2 _E2 B2 | B2 A2 [C_EG]2 | A6 | c2 c2 c2 | A4 z2 | c6- | c6 | .[A,DF]2 [CFA]2 [B,EG]2 | [A,F]6 |] %18
w: |||||||||
V:2
 [F,CF]2 [F,CF]2 [F,DF]2 | [F,CF]4 [F,CF]2 | [E,C]4 [F,CF]2 | [C,C]4 [F,CF]2 | %4
 [F,F]2- [F,CF]2 [F,B,F]2 | [F,A,F]4 [F,A,]2 | z2 A2 D,2 | C,6 | [C,B,C]2 [D,B,C]2 [E,B,C]2 | %9
 C2 z2 [F,D]2 | [C_E]2- [C,CE]2 C,2 | [F,CF]6 | [F,A,F]6 | [CF]4[K:treble] [B,CE]2 | %14
 [A,CF]4[K:bass] [A,C]2 | G,2 z2 z2 | z B, C,2 C,2 | F,6 |] %18
V:3
 x6 | x6 | G2- [GB]2 A2 | x6 | x6 | x6 | [=B,F]4 [B,FG]2 | x6 | x6 | F4 z2 | x6 | x6 | x6 | %13
 z2 A,2 G2 | z2 z2 F2 | E2 D2 C2 | x6 | x6 |] %18
V:4
 x6 | x6 | x6 | x6 | A,2 z2 z2 | x6 | D,4 z2 | x6 | x6 | [F,A,]4 z2 | G,2 z2 z2 | x6 | x6 | %13
 F,2 z2[K:treble] z2 | x4[K:bass] x2 | B,2- [F,B,-]2 [E,B,]2 | D,2 z2 z2 | x6 |] %18

